!!!COM: Music21
!!!OTL: march_Richard-Deasys
!!!OMV: march_Richard-Deasys
**kern
*clefG2
*k[f#]
*M4/4
=1
8eeL
8ddJ
=
4cc
8.aL
16gJk
8aL
8bJ
8ccL
8ddJ
=
8eeL
8aJ
8ccL
8eeJ
4aa
8ggL
8eeJ
=
4dd
8.bL
16aJk
8gL
8aJ
8bL
8ccJ
=
8ddL
8bJ
8ggL
8eeJ
4dd
8eeL
8ddJ
=
4cc
8.aL
16gJk
8aL
8bJ
8ccL
8ddJ
!!linebreak:original
=
8eeL
8ff#J
8ggL
8eeJ
4aa
8.bbL
16aaJk
=
8ggL
8eeJ
8.ddL
16ccJk
8ddL
8ggJ
8eeL
8ddJ
=
4cc
8.aL
16gJk
4a
4ryy
=||
*M4/4
8eeL
8ddJ
=
4cc
8.aL
16gJk
8aL
8bJ
8ccL
8ddJ
=
8eeL
8aJ
8ccL
8eeJ
4aa
8ggL
8eeJ
!!linebreak:original
=
4dd
8.bL
16aJk
8gL
8aJ
8bL
8ccJ
=
8ddL
8bJ
8ggL
8eeJ
4dd
8eeL
8ddJ
=
4cc
8.aL
16gJk
8aL
8bJ
8ccL
8ddJ
=
8eeL
8ff#J
8ggL
8eeJ
4aa
8.bbL
16aaJk
=
8ggL
8eeJ
8.ddL
16ccJk
8ddL
8ggJ
8eeL
8ddJ
!!linebreak:original
=
4cc
8.aL
16gJk
8aL
8bJ
8ccL
8ddJ
=||
4ee
8.aaL
16bbJk
8aaL
8ggJ
8eeL
8ddJ
=
8eeL
8ccJ
8aL
8bJ
4cc
8bL
8ccJ
=
8ddL
8ggJ
16ff#LL
16ggJ
8aaJ
8ggL
8aaJ
8.bbL
16aaJk
=
8ggL
8eeJ
8ddL
8bJ
4g
8eeL
8ddJ
!!linebreak:original
=
4cc
8.aL
16gJk
8aL
8bJ
8ccL
8ddJ
=
8eeL
8ff#J
8ggL
8eeJ
4aa
8.bbL
16aaJk
=
8ggL
8eeJ
8.ddL
16ccJk
8ddL
8ggJ
8eeL
8ddJ
=
4cc
8.aL
16gJk
8aL
8bJ
8ccL
8ddJ
=
4ee
8.aaL
16bbJk
8aaL
8ggJ
8eeL
8ddJ
!!linebreak:original
=
8eeL
8ccJ
8aL
8bJ
4cc
8bL
8ccJ
=
8ddL
8ggJ
16ff#LL
16ggJ
8aaJ
8ggL
8aaJ
8.bbL
16aaJk
=
8ggL
8eeJ
8ddL
8bJ
4g
8aL
8bJ
=
4cc
8bL
8ddJ
8ccL
8bJ
8ccL
8eeJ
=
4dd
8ccL
8ddJ
8eeL
8ff#J
8ggL
8eeJ
!!linebreak:original
=
8.aaL
16ggJk
8eeL
8ccJ
8ddL
8ggJ
8eeL
8ddJ
=
4cc
8.aL
16gJk
4a
4ryy
=||
*-
